2 Export/Icons/Rounded/Quote.svg

<svg xmlns="http://www.w3.org/2000/svg" xmlns:xlink="http://www.w3.org/1999/xlink" width="24" height="24" viewBox="0 0 24 24">
  <defs>
    <path id="quote-a" d="M7.17 17c.51 0 .98-.29 1.2-.74l1.42-2.84c.14-.28.21-.58.21-.89V8c0-.55-.45-1-1-1H5c-.55 0-1 .45-1 1v4c0 .55.45 1 1 1h2l-1.03 2.06c-.45.89.2 1.94 1.2 1.94zm10 0c.51 0 .98-.29 1.2-.74l1.42-2.84c.14-.28.21-.58.21-.89V8c0-.55-.45-1-1-1h-4c-.55 0-1 .45-1 1v4c0 .55.45 1 1 1h2l-1.03 2.06c-.45.89.2 1.94 1.2 1.94z"/>
  </defs>
  <g fill="none" fill-rule="evenodd">
    <polygon points="0 0 24 0 24 24 0 24"/>
    <mask id="quote-b" fill="#fff">
      <use xlink:href="#quote-a"/>
    </mask>
    <use fill="#000" xlink:href="#quote-a"/>
    <g fill="#000" mask="url(#quote-b)">
      <rect width="24" height="24"/>
    </g>
  </g>
</svg>

<svg xmlns="http://www.w3.org/2000/svg" xmlns:xlink="http://www.w3.org/1999/xlink" width="24" height="24" viewBox="0 0 24 24">
  <defs>
    <path id="quote-a" d="M7.17,17 C7.68,17 8.15,16.71 8.37,16.26 L9.79,13.42 C9.93,13.14 10,12.84 10,12.53 L10,8 C10,7.45 9.55,7 9,7 L5,7 C4.45,7 4,7.45 4,8 L4,12 C4,12.55 4.45,13 5,13 L7,13 L5.97,15.06 C5.52,15.95 6.17,17 7.17,17 Z M17.17,17 C17.68,17 18.15,16.71 18.37,16.26 L19.79,13.42 C19.93,13.14 20,12.84 20,12.53 L20,8 C20,7.45 19.55,7 19,7 L15,7 C14.45,7 14,7.45 14,8 L14,12 C14,12.55 14.45,13 15,13 L17,13 L15.97,15.06 C15.52,15.95 16.17,17 17.17,17 Z"/>
  </defs>
  <g fill="none" fill-rule="evenodd">
    <polygon points="0 0 24 0 24 24 0 24"/>
    <mask id="quote-b" fill="#fff">
      <use xlink:href="#quote-a"/>
    </mask>
    <use fill="#000" xlink:href="#quote-a"/>
    <g fill="#000" mask="url(#quote-b)">
      <rect width="24" height="24"/>
    </g>
  </g>
</svg>
